!!!COA:	Josquin des Prez
!!!CDT:	~1450-1521/08/27
!!!COM2: La Rue, Pierre de
!!!CDT2: ~1452///-1518/11/20/
!!!OPR:	Missa Sub tuum presidium
!!!ONM:	4
!!!OTL:	Sanctus
!!!AGN:	Mass; Sanctus
!!!SCT:	NJE 4.5
!!!SCA:	New Josquin Edition 4.5
!!!voices:	4
!!!voices-OPR:	4
**kern	**kern	**kern	**kern
*staff4	*staff3	*staff2	*staff1
*Ivox	*Ivox	*Ivox	*Ivox
*I"Bassus	*I"Tenor	*I"Altus	*I"Superius
*I'B	*I'T	*I'A	*I'S
*>[A,B,C,D,E,F]	*>[A,B,C,D,E,F]	*>[A,B,C,D,E,F]	*>[A,B,C,D,E,F]
*>A	*>A	*>A	*>A
*clefF4	*clefGv2	*clefGv2	*clefG2
*k[]	*k[]	*k[]	*k[]
*M3/1	*M3/1	*M3/1	*M3/1
*met(O)	*met(O)	*met(O)	*met(O)
=1-	=1-	=1-	=1-
0.r	0.r	1.e	1e
.	.	.	2g/
.	.	2c\	2a/
.	.	2d\	[1b
.	.	2e\	.
=2	=2	=2	=2
0.r	0.r	4B\	2b\]
.	.	4c\	.
.	.	4d\	2g/
.	.	4B\	.
.	.	2c\	2a/
.	.	2B\	2b\
.	.	2.e\	4e/
.	.	.	4f/
.	.	.	4g/
.	.	4c\	4e/
=3	=3	=3	=3
0.r	0.r	2d\	2f/
.	.	2e\	2e/
.	.	4A/	2.cc\
.	.	4B\	.
.	.	4c\	.
.	.	4d\	4a/
.	.	2B\	2b\
.	.	2A/	2cc\
=4	=4	=4	=4
0.r	0.r	2.f\	4a/
.	.	.	4b\
.	.	.	4cc\
.	.	4d\	4dd\
.	.	2e\	2b\
.	.	2f\	1a
.	.	1d	.
.	.	.	2dd\
=5	=5	=5	=5
0.r	0.r	2e\	4cc\
.	.	.	4b\
.	.	4d\	1b
.	.	4B\	.
.	.	1c	.
.	.	.	2a/
.	.	4r	2b\
.	.	4B\	.
.	.	2c\	4r
.	.	.	4e/
=6	=6	=6	=6
1r	0.r	4r	2g/
.	.	4B\	.
.	.	2c\	2a/
1r	.	2B\	2b\
.	.	2c\	2e/
1BB	.	1d	1b
=7	=7	=7	=7
0AA	0E	0e	0cc
1E	1G	1e	2.b\
.	.	.	4cc\
=8	=8	=8	=8
1F	1A	1d	4dd\
.	.	.	4cc\
.	.	.	4b\
.	.	.	4a/
0E	0B	0e	2g/
.	.	.	1a
.	.	.	2g#i/
=9	=9	=9	=9
1AA	2.A/	2r	1a
.	.	2e\	.
.	4G/	.	.
1r	2F/	2d\	2r
.	2E/	2e\	2cc\
1r	2G/	4d\	2b\
.	.	4B\	.
.	2A/	2c\	2a/
=10	=10	=10	=10
1r	2B\	2B\	2g/
.	4r	2e\	2cc\
.	4E/	.	.
1r	2G/	4d\	4b\
.	.	4e\	4cc\
.	2A/	2c\	2a/
2r	2B\	2B\	2.g/
[2E\	2c\	2G/	.
.	.	.	4e/
=11	=11	=11	=11
4E\]	4d\	1A	1f
4D\	4c\	.	.
2D\	4B\	.	.
.	4A/	.	.
2E\	2G/	1r	2e/
2A\	2c\	.	1e
4G\	2B\	1r	.
4E\	.	.	.
2F\	2A/	.	2d/
=12	=12	=12	=12
2E\	2G/	1r	1e
2A\	2c\	.	.
4G\	4B\	1r	1r
4A\	4c\	.	.
2F\	2A/	.	.
[1E	[1B	4E/	1r
.	.	4F/	.
.	.	4G/	.
.	.	4A/	.
=13	=13	=13	=13
0E]	1B]	2B\	4e/
.	.	.	4f/
.	.	2E/	4g/
.	.	.	4a/
.	1r	4G/	2b\
.	.	4A/	.
.	.	4B\	2e/
.	.	4c\	.
1r	[1G	2d\	4g/
.	.	.	4a/
.	.	4G/	4b\
.	.	4A/	4cc\
=14	=14	=14	=14
1r	1G]	2B\	2dd\
.	.	2E/	2g/
4AA/	1A	0e	2.cc\
4BB/	.	.	.
4C/	.	.	.
4D\	.	.	4b\
2E\	2G/	.	4b\
.	.	.	4a/
2AA/	2A/	.	[2cc\
=15	=15	=15	=15
4C/	4E/	1e	2cc\]
4D\	4F/	.	.
4E\	4G/	.	4b\
4F\	4A/	.	4a/
2G\	2B\	2r	2g/
2.C/	2E/	1e	2cc\
.	4G/	.	4b\
4BB/	4A/	.	4g/
2AA/	4B\	2f\	2a/
.	4c\	.	.
=16	=16	=16	=16
0.GG	2d\	2.g\	0b
.	2G/	.	.
.	.	4f\	.
.	1d	2d\	.
.	.	1g	.
.	2r	.	2r
.	[2B\	4f\	[2g/
.	.	4e\	.
=17	=17	=17	=17
1r	2B\]	1d	2g/]
.	2B\	.	2g/
1r	2c\	2r	2e/
.	2B\	2.e\	2.g/
1C	1c	.	.
.	.	4d\	4f/
.	.	4c\	4e/
.	.	4B\	4d/
=18	=18	=18	=18
[0.GG	1d	0B	0d
.	2r	.	.
.	1d	.	.
.	.	1B	2r
.	2d\	.	[2dd\
=19	=19	=19	=19
0GG]	2B\	1.G	2dd\]
.	2.d\	.	2dd\
.	.	.	2b\
.	4c\	.	.
.	4B\	2G/	2.dd\
.	4A/	.	.
1D	2A/	2A/	.
.	.	.	4cc\
.	2d\	2B\	4b\
.	.	.	4a/
=20	=20	=20	=20
2r	2c\	2c\	1a
2.D\	1A	2d\	.
.	.	1B	2r
4C/	.	.	.
4BB/	2G/	.	2dd\
4AA/	.	.	.
1AA	1A	2r	2cc\
.	.	2c\	2a/
=21	=21	=21	=21
1GG	2r	1d	4b\
.	.	.	4a/
.	2d\	.	4g/
.	.	.	4f/
1AA	2c\	2r	1e
.	2A/	2c\	.
1GG	4B\	1d	2r
.	4A/	.	.
.	4G/	.	2dd\
.	4F/	.	.
=22	=22	=22	=22
1AA	1E	2r	2cc\
.	.	2c\	2a/
1GG	2r	2d\	4b\
.	.	.	4a/
.	2d\	2B\	4g/
.	.	.	4f/
1AA	2c\	[1e	4e/
.	.	.	4A/
.	2A/	.	[2a/
=23	=23	=23	=23
1E	1B	1e]	2a/]
.	.	.	2g#i/
2r	1A	2.c\	2a/
2F\	.	.	4r
.	.	4A/	4a/
2E\	1r	2B\	2g/
2C/	.	2c\	2e/
=24	=24	=24	=24
1D	2r	2.A/	4f/
.	.	.	4e/
.	2A/	.	4d/
.	.	4G/	4c/
2r	2G/	1B	2B/
2E\	2E/	.	1e
2D\	1F	1r	.
2BB/	.	.	2d/
=25	=25	=25	=25
2.C/	[0.El	2r	[0.el
.	.	2c\	.
4D\	.	.	.
1E	.	2B\	.
.	.	2G/	.
1AA	.	2.A/	.
.	.	4B\	.
=26	=26	=26	=26
0.El	0.E]	0.Bl	0.e]
!!LO:LB:i:g=z
=27||	=27||	=27||	=27||
*>B	*>B	*>B	*>B
*clefF4	*clefGv2	*clefGv2	*clefG2
*k[]	*k[]	*k[]	*k[]
*met(O)	*met(O)	*met(O)	*met(O)
*M2/1	*M2/1	*M2/1	*M2/1
*met(C|)	*met(C|)	*met(C|)	*met(C|)
!!section: Pleni sunt celi
!!!OMD: Pleni sunt celi
!	!	!	!
1r	0r	1E	0r
1E	.	2.E/	.
.	.	4F/	.
=28	=28	=28	=28
0E	0r	2G/	0r
.	.	2A/	.
.	.	2B\	.
.	.	[2c\	.
=29	=29	=29	=29
1D	0r	2c\]	0r
.	.	2.B\	.
1C	.	.	.
.	.	4G/	.
.	.	2A/	.
=30	=30	=30	=30
2BB/	0r	2.d\	0r
2.E\	.	.	.
.	.	4B\	.
.	.	2c\	.
4C/	.	.	.
2D\	.	[2B\	.
=31	=31	=31	=31
2.E\	0r	4B\]	0r
.	.	4G/	.
.	.	2A/	.
4C/	.	.	.
2D\	.	[1B	.
[2E\	.	.	.
=32	=32	=32	=32
4E\]	0r	0B_	0r
4C/	.	.	.
2D\	.	.	.
2E\	.	.	.
2D\	.	.	.
=33	=33	=33	=33
2E\	0r	1B]	0r
2BB/	.	.	.
1C	.	1A	.
=34	=34	=34	=34
2BB/	0r	0B	0b
2.E\	.	.	.
4C/	.	.	.
2D\	.	.	.
=35	=35	=35	=35
2E\	0r	0r	1b
2BB/	.	.	.
2C/	.	.	1a
2D\	.	.	.
=36	=36	=36	=36
1GG	0r	0B	2b\
.	.	.	2.e/
[1G	.	.	.
.	.	.	4c/
.	.	.	2d/
=37	=37	=37	=37
1G]	0r	1B	2e/
.	.	.	2B/
1F	.	1A	2c/
.	.	.	2d/
=38	=38	=38	=38
1G	0r	0B	1G
2G\	.	.	1g
[2E\	.	.	.
=39	=39	=39	=39
2E\]	0r	1r	2g/
1C	.	.	1e
.	.	1c	.
4BB/	.	.	4d/
4AA/	.	.	4c/
=40	=40	=40	=40
1GG	0r	1d	0B
[1G	.	2d\	.
.	.	[2B\	.
=41	=41	=41	=41
2G\]	0r	2B\]	1r
4F#i\	.	4A/	.
4E\	.	4G/	.
1F#i	.	1A	1cc
=42	=42	=42	=42
0G	0r	0G	2b\
.	.	.	2.dd\
.	.	.	4cc\
.	.	.	4b\
.	.	.	8a/L
.	.	.	8g/J
=43	=43	=43	=43
1D	0r	1d	1a
2r	.	1e	1g
[2G\	.	.	.
=44	=44	=44	=44
2G\]	0r	2e\	0r
1E	.	1c	.
4D\	.	4B\	.
4C/	.	4A/	.
=45	=45	=45	=45
2D\	0r	1B	1dd
2GG/	.	.	.
2D\	.	2A/	2dd\
2GG/	.	[2B\	[2b\
=46	=46	=46	=46
2BB/	0r	4B\]	2b\]
.	.	4G/	.
2C/	.	1G	4a/
.	.	.	4g/
1AA	.	.	1a
.	.	2F#i/	.
=47	=47	=47	=47
0GG	0r	0G	2r
.	.	.	2d/
.	.	.	2d/
.	.	.	[2e/
=48	=48	=48	=48
2r	0r	0r	2e/]
2D\	.	.	4d/
.	.	.	4c/
1D	.	.	2B/
.	.	.	2d/
=49	=49	=49	=49
1.E	0r	0r	2c/
.	.	.	2.B/
.	.	.	4c/
4D\	.	.	4d/
4C/	.	.	4e/
=50	=50	=50	=50
2BB/	0r	1r	2d/
2D\	.	.	1B
1C	.	1e	.
.	.	.	2A/
=51	=51	=51	=51
2BB/	0r	2d\	1B
1E	.	2.B\	.
.	.	.	1r
.	.	4c\	.
2D\	.	4d\	.
.	.	4e\	.
=52	=52	=52	=52
2BB/	0r	2d\	2r
2D\	.	1B	2b\
1C	.	.	1cc
.	.	2A/	.
=53	=53	=53	=53
1BB	0r	1B	2dd\
.	.	.	2.b\
1r	.	1c	.
.	.	.	4g/
.	.	.	2a/
=54	=54	=54	=54
1BB	0r	1B	2d/
.	.	.	2dd\
2AA/	.	2r	2cc\
2BB/	.	2B\	[2b\
=55	=55	=55	=55
2GG/	0r	2d\	2b\]
2AA/	.	2c\	2a/
2GG/	.	1B	2b\
2G\	.	.	2g/
=56	=56	=56	=56
2F\	0r	2A/	2a/
2G\	.	2B\	1g
2E\	.	2G/	.
2F\	.	2A/	[2cc\
=57	=57	=57	=57
1.E	0r	1G	2cc\]
.	.	.	1b
.	.	1c	.
2F\	.	.	2a/
=58	=58	=58	=58
2D\	0r	2B\	2b\
2E\	.	1B	2g/
1C	.	.	1a
.	.	2A/	.
=59	=59	=59	=59
0BB	0r	0B	2r
.	.	.	1d
.	.	.	[2g/
=60	=60	=60	=60
2r	0r	0r	4g/]
.	.	.	4f/
2.E\	.	.	4e/
.	.	.	4d/
.	.	.	2c/
4C/	.	.	.
2D\	.	.	[2B/
=61	=61	=61	=61
1E	0r	0r	2B/]
.	.	.	1e
1F	.	.	.
.	.	.	2d/
=62	=62	=62	=62
0E	0r	1r	1e
.	.	2r	2r
.	.	2e\	2g/
=63	=63	=63	=63
1r	0r	2c\	2e/
.	.	2d\	2f/
2r	.	1e	2g/
[2E\	.	.	2b\
=64	=64	=64	=64
2E\]	0r	1f	1a
2D\	.	.	.
2E\	.	1e	1g
2G\	.	.	.
=65	=65	=65	=65
2E\	0r	2r	2.cc\
2F\	.	2d\	.
.	.	.	4b\
2G\	.	2B\	4b\
.	.	.	4a/
2A\	.	2c\	[2a/
=66	=66	=66	=66
1D	0r	1d	2a/]
.	.	.	2dd\
1r	.	1e	2b\
.	.	.	2cc\
=67	=67	=67	=67
0r	0r	2d\	2dd\
.	.	2G/	2b\
.	.	2E/	2g/
.	.	2F/	2a/
=68	=68	=68	=68
2r	0r	1G	2b\
2G\	.	.	1g
2E\	.	1c	.
2F\	.	.	4f/
.	.	.	4e/
=69	=69	=69	=69
2G\	0r	2B\	2d/
2E\	.	2G/	1g
2C/	.	1A	.
2D\	.	.	2f/
=70	=70	=70	=70
2E\	0r	2r	1g
1C	.	2G/	.
.	.	2E/	1r
4BB/	.	2F/	.
4AA/	.	.	.
=71	=71	=71	=71
1GG	0r	2G/	2r
.	.	2d\	2dd\
1r	.	1e	2b\
.	.	.	2cc\
=72	=72	=72	=72
1GG	0r	2d\	2dd\
.	.	2G/	2b\
1r	.	2E/	2g/
.	.	2F/	2a/
=73	=73	=73	=73
[0GGl	0r	1G	2b\
.	.	.	1g
.	.	2E/	.
.	.	2F/	4f/
.	.	.	4e/
=74	=74	=74	=74
0GG_	0r	1G	[0dl
.	.	1D	.
=75	=75	=75	=75
0GG]	0r	0Gl	0d]
!!LO:LB:i:g=z
=76||	=76||	=76||	=76||
*>C	*>C	*>C	*>C
*clefF4	*clefGv2	*clefGv2	*clefG2
*k[]	*k[]	*k[]	*k[]
*M2/1	*M2/1	*M2/1	*M2/1
*met(C|)	*met(C|)	*met(C|)	*met(C|)
!!section: Osanna
!!!OMD: Osanna
[0GG	[0G	0d	0b
=77	=77	=77	=77
0GG]	0G]	1d	1b
.	.	1B	2b\
.	.	.	[2g/
=78	=78	=78	=78
0C	1.G	2.c\	2g/]
.	.	.	4f/
.	.	4B\	4e/
.	.	1G	2.g/
.	2E/	.	.
.	.	.	4f/
=79	=79	=79	=79
[0BB	2.G/	2r	1d
.	.	1d	.
.	4F/	.	.
.	2D/	.	1r
.	[2d\	[2B\	.
=80	=80	=80	=80
0BB]	2d\]	2B\]	1dd
.	1B	2G/	.
.	.	1d	2dd\
.	2G/	.	[2b\
=81	=81	=81	=81
0E	0G	1B	2b\]
.	.	.	4a/
.	.	.	4g/
.	.	1c	1g
=82	=82	=82	=82
[0D	0A	[0d	1r
.	.	.	[1dd
=83	=83	=83	=83
1D]	1A	0d]	1dd]
1BB	[1G	.	1dd
=84	=84	=84	=84
1C	2G/]	1r	1cc
.	2E/	.	.
1D	1F#i	1d	1a
=85	=85	=85	=85
0GG	[0G	2d\	1.b
.	.	1e	.
.	.	4d\	4a/
.	.	4c\	4g/
=86	=86	=86	=86
1r	0G]	2.B\	2g/
.	.	.	4f/
.	.	4A/	4e/
2r	.	2B\	2d/
[2C/	.	[2c\	[2e/
=87	=87	=87	=87
2C/]	0r	2c\]	2e/]
2BB/	.	2.G/	2d/
2C/	.	.	2e/
.	.	4A/	.
4BB/	.	4B\	4d/
4AA/	.	4c\	4c/
=88	=88	=88	=88
1GG	0r	1d	0B
2r	.	2r	.
[2E\	.	[2G/	.
=89	=89	=89	=89
2E\]	0B	2G/]	0r
2D\	.	2F/	.
2E\	.	2G/	.
4D\	.	4F/	.
4C/	.	4E/	.
=90	=90	=90	=90
0BB	1.B	2D/	0b
.	.	1d	.
.	4A/	2B\	.
.	4G/	.	.
=91	=91	=91	=91
0E	[0G	[0B	1.b
.	.	.	4a/
.	.	.	4g/
=92	=92	=92	=92
1.E	0G]	0B]	[0g
4D\	.	.	.
4C/	.	.	.
=93	=93	=93	=93
[0C	1.c	0e	0g]
.	2B\	.	.
=94	=94	=94	=94
0C]	1A	1.e	1.cc
.	1G	.	.
.	.	4d\	4b\
.	.	4c\	4a/
=95	=95	=95	=95
1.F	1A	0c	4a/
.	.	.	4e/
.	.	.	1a
.	2r	.	.
2E\	2E/	.	2g/
=96	=96	=96	=96
2.D\	2F/	1f	1a
.	4E/	.	.
4C/	4D/	.	.
2AA/	1C	2e\	2r
2C/	.	[2e\	2e/
=97	=97	=97	=97
2D\	2r	2e\]	2f/
4C/	2A/	2d\	4e/
4BB/	.	.	4d/
[1AA	2.c\	1e	2c/
.	.	.	2a/
.	4B\	.	.
=98	=98	=98	=98
1AA]	2A/	2r	2cc\
.	4G/	1e	4b\
.	4F/	.	4a/
1r	1E	.	2g/
.	.	4d\	[2a/
.	.	4c\	.
=99	=99	=99	=99
0r	2r	1B	2a/]
.	2B\	.	2g#i/
.	2c\	2A/	1a
.	4B\	[2d\	.
.	4A/	.	.
=100	=100	=100	=100
0BB	2G/	4d\]	0dd
.	.	4c\	.
.	4F/	4B\	.
.	4E/	4A/	.
.	1D	2.G#i/	.
.	.	4F#i/	.
=101	=101	=101	=101
[0AA	[0E	[0A	1.cc
.	.	.	4b\
.	.	.	4a/
=102	=102	=102	=102
0AA]	0E]	0A]	2a/
.	.	.	4g/
.	.	.	4f/
.	.	.	2e/
.	.	.	2a/
=103	=103	=103	=103
2r	2r	0r	2g/
2E\	2G/	.	1e
2F\	2A/	.	.
2G\	2B\	.	2d/
=104	=104	=104	=104
1C	1c	2r	2e/
.	.	2e\	2g/
1r	1r	2f\	2a/
.	.	2g\	2b\
=105	=105	=105	=105
2r	2r	2.c\	2e/
2E\	2G/	.	2.g/
.	.	4B\	.
2F\	2A/	2A/	.
.	.	.	4f/
2G\	2B\	[2G/	2d/
=106	=106	=106	=106
1C	1c	2G/]	2.e/
.	.	2.G/	.
.	.	.	4d/
1E	1G	.	2c/
.	.	4A/	.
.	.	4B\	[2B/
.	.	4c\	.
=107	=107	=107	=107
2D\	2F/	1d	2B/]
2BB/	2D/	.	2b\
2AA/	1E	2r	2cc\
2C/	.	2c\	2a/
=108	=108	=108	=108
2BB/	2r	2d\	2b\
2E\	2G/	2e\	2cc\
2F\	2A/	2c\	2a/
2D\	2F/	2d\	[2b\
=109	=109	=109	=109
1E	1G	2B\	2b\]
.	.	2e\	2cc\
2r	2A/	2f\	2a/
2E\	2G/	2g\	[2b\
=110	=110	=110	=110
2F\	2c\	1f	4b\]
.	.	.	4a/
2D\	2d\	.	1a
1E	1B	[1e	.
.	.	.	2g#i/
=111	=111	=111	=111
1AA	1A	2e\]	2a/
.	.	2c\	2e/
1r	1r	2d\	2f/
.	.	2B\	2d/
=112	=112	=112	=112
2r	0r	1c	2e/
2E\	.	.	2g/
2F\	.	1A	2a/
2D\	.	.	2f/
=113	=113	=113	=113
2.E\	2r	1G	2g/
.	2G/	.	2b\
4D\	.	.	.
2C/	2A/	2r	2cc\
2BB/	2B\	2d\	2dd\
=114	=114	=114	=114
2C/	2E/	2e\	2g/
2AA/	2F/	2c\	1cc
2BB/	2D/	2d\	.
2GG/	2G/	2B\	[2b\
=115	=115	=115	=115
2AA/	2E/	2c\	2b\]
2FF/	2F/	2A/	1a
1EE	2G/	1B	.
.	2E/	.	2g#i/
=116	=116	=116	=116
1r	2F/	[0Al	[0al
.	2D/	.	.
1AA	2.F/	.	.
.	4E/	.	.
=117	=117	=117	=117
0AAl	0El	0A]	0a]
!!LO:LB:i:g=z
=118||	=118||	=118||	=118||
*>D	*>D	*>D	*>D
*clefF4	*clefGv2	*clefGv2	*clefG2
*k[]	*k[]	*k[]	*k[]
*M2/1	*M2/1	*M2/1	*M2/1
*met(C|)	*met(C|)	*met(C|)	*met(C|)
!!section: Benedictus
!!!OMD: Benedictus
!	!	!	!
1E	0B	0r	0r
2E\	.	.	.
2E\	.	.	.
=119	=119	=119	=119
2D\	1B	0r	0r
2BB/	.	.	.
2E\	1B	.	.
2F\	.	.	.
=120	=120	=120	=120
2G\	0B	0r	0r
2.A\	.	.	.
4G\	.	.	.
2G\	.	.	.
=121	=121	=121	=121
2.A\	1c	0r	0r
4G\	.	.	.
4F\	2A/	.	.
4E\	.	.	.
[2E\	2B\	.	.
=122	=122	=122	=122
2E\]	2c\	0r	0r
2D\	1d	.	.
1E	.	.	.
.	2c\	.	.
=123	=123	=123	=123
2r	1d	0r	0r
2BB/	.	.	.
1D	2r	.	.
.	2A/	.	.
=124	=124	=124	=124
2AA/	2.c\	0r	0r
1E	.	.	.
.	4B\	.	.
.	4G/	.	.
.	4A/	.	.
[2BB/	4B\	.	.
.	4c\	.	.
=125	=125	=125	=125
2BB/]	2B\	0r	0r
2E\	2E/	.	.
1G	2r	.	.
.	2B\	.	.
=126	=126	=126	=126
2D\	2.d\	0r	0r
1F	.	.	.
.	4c\	.	.
.	2A/	.	.
2E\	[2c\	.	.
=127	=127	=127	=127
[0E	2c\]	0r	0r
.	2B\	.	.
.	4B\	.	.
.	4A/	.	.
.	4G/	.	.
.	4F/	.	.
=128	=128	=128	=128
0E]	4E/	0r	0r
.	4F/	.	.
.	4G/	.	.
.	4A/	.	.
.	2B\	.	.
.	[2c\	.	.
=129	=129	=129	=129
0E	4c\]	0r	0r
.	4B\	.	.
.	4B\	.	.
.	4A/	.	.
.	1G	.	.
=130	=130	=130	=130
2r	2r	0r	0r
1F	1c	.	.
2E\	4c\	.	.
.	4B\	.	.
=131	=131	=131	=131
4E\	4B\	0r	0r
4D\	4A/	.	.
4C/	2.c\	.	.
4BB/	.	.	.
4AA/	.	.	.
4BB/	4B\	.	.
4C/	4B\	.	.
4D\	4A/	.	.
=132	=132	=132	=132
2E\	4c\	0r	0r
.	4B\	.	.
2.F\	4B\	.	.
.	4A/	.	.
.	2.c\	.	.
4E\	.	.	.
4E\	.	.	.
4D\	4B\	.	.
=133	=133	=133	=133
2C/	4B\	0r	0r
.	4A/	.	.
2D\	2.A/	.	.
1BB	.	.	.
.	4G#i/	.	.
.	4G#i/	.	.
.	4F#i/	.	.
=134	=134	=134	=134
0AAl	0Al	0r	0r
!!LO:LB:i:g=z
=135||	=135||	=135||	=135||
*>E	*>E	*>E	*>E
*clefF4	*clefGv2	*clefGv2	*clefG2
*k[]	*k[]	*k[]	*k[]
*M2/1	*M2/1	*M2/1	*M2/1
*met(C|)	*met(C|)	*met(C|)	*met(C|)
!!section: In nomine
!!!OMD: In nomine
!	!	!	!
0r	0r	1.e	[0e
.	.	4d\	.
.	.	4c\	.
=136	=136	=136	=136
0r	0r	4d\	0e]
.	.	4c\	.
.	.	4B\	.
.	.	4A/	.
.	.	2G/	.
.	.	[2A/	.
=137	=137	=137	=137
0r	0r	4A/]	0e
.	.	4G/	.
.	.	2G/	.
.	.	2A/	.
.	.	[2E/	.
=138	=138	=138	=138
0r	0r	2E/]	[0b
.	.	1e	.
.	.	4d\	.
.	.	4c\	.
=139	=139	=139	=139
2r	0r	4d\	0b]
.	.	4c\	.
1E	.	4B\	.
.	.	4A/	.
.	.	4G/	.
.	.	4A/	.
4D\	.	4B\	.
4C/	.	4c\	.
=140	=140	=140	=140
4D\	0r	2B\	0b
4C/	.	.	.
4BB/	.	1A	.
4AA/	.	.	.
1BB	.	.	.
.	.	2G#i/	.
=141	=141	=141	=141
[0AA	0r	[0A	1cc
.	.	.	2a/
.	.	.	[2cc\
=142	=142	=142	=142
0AA]	0r	0A]	2cc\]
.	.	.	4b\
.	.	.	4a/
.	.	.	4b\
.	.	.	4a/
.	.	.	4g/
.	.	.	4f/
=143	=143	=143	=143
0r	0r	2r	2e/
.	.	2.d\	2.f/
.	.	4c\	4e/
.	.	4c\	4e/
.	.	4B\	4d/
=144	=144	=144	=144
0r	0r	2d\	2f/
.	.	2e\	2.e/
.	.	2.f\	.
.	.	.	4d/
.	.	.	4d/
.	.	4e\	4c/
=145	=145	=145	=145
0r	0r	2c\	2.e/
.	.	2e\	.
.	.	.	4c/
.	.	2f\	2d/
.	.	[2e\	2e/
=146	=146	=146	=146
1D	0r	4e\]	2.f/
.	.	4d\	.
.	.	4d\	.
.	.	4c\	4g/
1AA	.	2e\	4a/
.	.	.	4b\
.	.	4d\	4cc\
.	.	4c\	4b\
=147	=147	=147	=147
2D\	0r	4d\	4b\
.	.	4c\	4a/
2F\	.	4B\	1a
.	.	4A/	.
1E	.	1B	.
.	.	.	2g#i/
=148	=148	=148	=148
2r	0r	0A	0a
2AA/	.	.	.
2D\	.	.	.
2F\	.	.	.
=149	=149	=149	=149
1E	0r	2r	0r
.	.	2E/	.
2r	.	2A/	.
[2A\	.	2c\	.
=150	=150	=150	=150
2A\]	0r	2B\	0r
2G\	.	2.e\	.
2F\	.	.	.
.	.	4d\	.
4E\	.	2d\	.
4BB/	.	.	.
=151	=151	=151	=151
2C/	0r	1e	0r
1E	.	.	.
.	.	2B\	.
2D\	.	2d\	.
=152	=152	=152	=152
1E	0r	2c\	1r
.	.	1B	.
2r	.	.	2b\
2BB/	.	2B\	2dd\
=153	=153	=153	=153
2C/	0r	2A/	2cc\
2D\	.	1d	1b
2BB/	.	.	.
2GG/	.	2B\	2b\
=154	=154	=154	=154
2AA/	0r	2c\	2a/
2BB/	.	2d\	1dd
1GG	.	2.B\	.
.	.	.	2cc\
.	.	4G/	.
=155	=155	=155	=155
0r	0r	2A/	2cc\
.	.	2B\	2dd\
.	.	2G/	2.b\
.	.	2B\	.
.	.	.	4g/
=156	=156	=156	=156
1r	0r	2c\	2a/
.	.	2d\	1b
2.BB/	.	1B	.
.	.	.	2B/
4GG/	.	.	.
=157	=157	=157	=157
2AA/	0r	0r	2c/
1BB	.	.	2d/
.	.	.	2.B/
2BB/	.	.	.
.	.	.	4G/
=158	=158	=158	=158
2C/	0r	0r	2A/
2D\	.	.	1B
2.BB/	.	.	.
.	.	.	2d/
4GG/	.	.	.
=159	=159	=159	=159
2AA/	0r	2r	2c/
2BB/	.	2d\	4B/
.	.	.	4A/
2C/	.	2e\	2G/
2AA/	.	[2c\	[2e/
=160	=160	=160	=160
1E	0r	2c\]	2e/]
.	.	4B\	4d/
.	.	4G/	4B/
1r	.	1A	1c
=161	=161	=161	=161
1E	0r	2B\	2B/
.	.	2c\	1g
1r	.	4B\	.
.	.	4G/	.
.	.	2A/	4f/
.	.	.	4d/
=162	=162	=162	=162
1.E	0r	[0Gl	2e/
.	.	.	4d/
.	.	.	4B/
.	.	.	1c
2E\	.	.	.
=163	=163	=163	=163
0El	0r	0G]	0Bl
!!LO:LB:i:g=z
=164||	=164||	=164||	=164||
*>F	*>F	*>F	*>F
*clefF4	*clefGv2	*clefGv2	*clefG2
*k[]	*k[]	*k[]	*k[]
*met(C|)	*met(C|)	*met(C|)	*met(C|)
*M3/1	*M3/1	*M3/1	*M3/1
*met(O|)	*met(O|)	*met(O|)	*met(O|)
!!section: Osanna
!!!OMD: Osanna
1.E	1E	1.B	0e
.	2G/	.	.
4D\	2A/	2c\	.
4C/	.	.	.
2BB/	2B\	2d\	2g/
2AA/	2E/	[2e\	2a/
=165	=165	=165	=165
1.E	2G/	2e\]	2b\
.	2A/	4d\	2e/
.	.	4c\	.
.	2B\	2B\	2g/
4D\	2E/	2e\	2a/
4C/	.	.	.
2.BB/	1G	2.d\	2b\
.	.	.	2g/
4E\	.	4B\	.
=166	=166	=166	=166
1AA	1A	2c\	2r
.	.	2.A/	2.cc\
1r	1E	.	.
.	.	4F/	4a/
.	.	2G/	4b\
.	.	.	4e/
1r	2r	1A	2e/
.	[2c\	.	[2a/
=167	=167	=167	=167
1r	4c\]	1E	4a/]
.	4A/	.	4f/
.	4B\	.	4g/
.	4E/	.	4c/
2r	2E/	1r	2c/
2.E\	2G/	.	4r
.	.	.	2g/
.	2.A/	1r	.
4C/	.	.	4e/
4D\	.	.	4f/
4GG/	4G/	.	4d/
=168	=168	=168	=168
2.GG/	2G/	1r	2g/
.	2E/	.	4g/
2C/	.	.	2e/
.	1F	1r	.
4AA/	.	.	4c/
2BB/	.	.	2d/
2.C/	1E	2r	1e
.	.	[2c\	.
[4AA/	.	.	.
=169	=169	=169	=169
4AA/]	0.r	4c\]	0.r
4FF/	.	4A/	.
2GG/	.	4B\	.
.	.	4E/	.
4AA/	.	2.E/	.
4BB/	.	.	.
4C/	.	.	.
4D\	.	2A/	.
2.BB/	.	.	.
.	.	4F/	.
.	.	2G/	.
4E\	.	.	.
=170	=170	=170	=170
1AA	[0.E	2.A/	2r
.	.	.	2.cc\
.	.	4B\	.
1r	.	4c\	.
.	.	4d\	4a/
.	.	4B\	2b\
.	.	4e\	.
1AA	.	1A	2.cc\
.	.	.	[4a/
=171	=171	=171	=171
1r	0.E]	2c\	4a/]
.	.	.	4f/
.	.	2B\	2g/
1AA	.	0A	2a/
.	.	.	2e/
2AA/	.	.	2r
[2C/	.	.	[2e/
=172	=172	=172	=172
4C/]	0E	1r	4e/]
4D\	.	.	4f/
2.E\	.	.	2.g/
.	.	0e	.
4D\	.	.	4f/
4C/	.	.	4e/
4BB/	.	.	4d/
2AA/	1E	.	1c
2C/	.	.	.
=173	=173	=173	=173
2GG/	2.G/	0d	2.B/
2G\	.	.	.
.	4E/	.	4G/
2D\	2F/	.	2A/
2.G\	2G/	.	2B/
.	1A	[1d	1r
4E\	.	.	.
2F\	.	.	.
=174	=174	=174	=174
2G\	2.B\	1d]	2r
2GG/	.	.	2b\
.	4G/	.	.
2r	2A/	2r	2cc\
2GG/	2B\	2d\	2.dd\
1GG	1G	1d	.
.	.	.	4cc\
.	.	.	4b\
.	.	.	4a/
=175	=175	=175	=175
2r	1r	1e	2.g/
2C/	.	.	.
.	.	.	4e/
2D\	1r	2d\	2f/
2.E\	.	2G/	2g/
.	2.B\	1G	2e/
4D\	.	.	.
4C/	.	.	2b\
4BB/	4G/	.	.
=176	=176	=176	=176
2AA/	2A/	2r	2cc\
2GG/	2B\	2.G/	2.dd\
1GG	1G	.	.
.	.	4A/	4cc\
.	.	2B\	4b\
.	.	.	4a/
1r	2.e\	1E	2g/
.	.	.	4cc\
.	4d\	.	4b\
=177	=177	=177	=177
1r	4d\	2r	4b\
.	4c\	.	4a/
.	2e\	2E/	2.cc\
1AA	1A	1E	.
.	.	.	4b\
.	.	.	1a
2r	1B	2r	.
2E\	.	2e\	2g/
=178	=178	=178	=178
2F\	2.A/	2d\	2a/
1A	.	2.c\	2e/
.	4G/	.	.
.	2F/	.	2r
.	.	4A/	.
2G\	2E/	2B\	2g/
2F\	1r	2A/	2a/
4E\	.	4G/	[2cc\
4D\	.	4F/	.
=179	=179	=179	=179
2C/	2r	1E	2cc\]
2E\	2G/	.	2b\
2F\	2A/	2r	2a/
4E\	1c	2E/	4g/
4D\	.	.	4f/
2C/	.	1E	2.e/
[2G\	[2B\	.	.
.	.	.	4f/
=180	=180	=180	=180
4G\]	2B\]	2r	2d/
4F\	.	.	.
2E\	2G/	2E/	2e/
2D\	2A/	2F/	2A/
2E\	2.c\	1E	2g/
[1AA	.	.	2a/
.	4B\	.	.
.	4A/	[2e\	[2cc\
.	8G/L	.	.
.	8F/J	.	.
=181	=181	=181	=181
1AA]	1E	4e\]	4cc\]
.	.	4d\	4b\
.	.	4c\	4a/
.	.	8B/L	8g/L
.	.	8A/J	8f/J
1r	2G/	2B\	2e/
.	2A/	2c\	2f/
1r	2.F/	2.A/	2.d/
.	4E/	4B\	4e/
=182	=182	=182	=182
2r	[0.El	2B\	[0.el
2GG/	.	4r	.
.	.	4B\	.
2AA/	.	2.c\	.
2.C/	.	.	.
.	.	4B\	.
.	.	4A/	.
4BB/	.	8G/L	.
.	.	8F/J	.
4AA/	.	[2E/	.
8GG/L	.	.	.
8FF/J	.	.	.
=183	=183	=183	=183
[0.EEl	0.E_	2E/]	0.e_
.	.	2B\	.
.	.	2c\	.
.	.	2.e\	.
.	.	4d\	.
.	.	4c\	.
.	.	8B/L	.
.	.	8A/J	.
=184	=184	=184	=184
0.EE]	0.E]	0.Gl	0.e]
=||	=||	=||	=||
*-	*-	*-	*-
!!!RDF**kern: l=long note in original notation
!!!RDF**kern: i=editorial accidental
!!!RDF**kern: V=start of tuplet marker
!!!RDF**kern: Z=end of tuplet marker
!!!ENC:	Will Watson 03/09/2011
!!!END:	2012/01/22/
!!!EED:	Jesse Rodin
!!!EEV:	2012/06/24/
!!attribution-level@Jos: 5 (doubtful)
!!!ONB:	Translated from MusicXML and edited on 2012/06/24/ by Craig Sapp
!!muse2ps: T^@{OPR}^u^@{ONM}{. }@{OTL}^C^La Rue/Josquin?\n@{SCT}^i2I150v85,85,85,150Q16
